X:3
T:The West Clare Railway
C:Martin 'Junior' Crehan
I:https://thesession.org/tunes/10091
D:Mick O'Brien, "May Morning Dew", 1996
R:Reel
M:2/2
K:Ador
|: EGAB c2AB | cBcd cAGD | EGAB cBcd |1 ecde cAAG :|2 ecde cAAe ||
| aged c2ce | aged cAAe | aged cBce | gfga gede |
| aged c2ce | aged cAd2 | faaf gedB | cded cAAG ||

